X: 18563
T: I Looked East And I Looked West
R: polka
M: 2/4
K: Gmajor
|:D|GB B/c/B/A/|FA AD|G2 Bc|d2 cA|
GB B/c/B/A/|FA A>B|cA FA|G3:|
|:d|g2 fe|fA AB|cd ef|g2 fe|
dg fe|fA A>B|cA FA|G3:|

